X:25
T:Bourree du Val de Loire
Z:Jack Campin, 2014
F:http://www.campin.me.uk/Music/YoupNannetteD.abc
S:p32, p1000221.jpg
M:3/8
L:1/16
Q:1/4=120
K:G
D2|GFGABc|d2B2d2|c2A2c2|B2G2\
D2|GFGABc|d2B2d2|c2A2F2|G4:|
d2|c2A2c2|B2G2B2|A2FGAc|B2G2\
d2|c2A2c2|B2G2B2|A2FGAF|G4:|

